#title Neo-Geo Coin
#date 2020-04-01
#platform megadrive

@1 psg 15 / 0

G t138
GHI l24 @1 o4 v12
G     d (4 d )4 > c (4 c )4   [b  (4 b  )2]5 r
H r48 f (4 f )4 > e (4 e )4 > [d  (4 d  )2]5 r
I r24 a (4 a )4 > g (4 g )4 > [f+ (4 f+ )2]5 r
J r2 r6

